img/svg/icon-font/exit.svg

<svg width="22" height="22" viewBox="0 0 22 22" fill="none" xmlns="http://www.w3.org/2000/svg">
<path d="M15.5123 16.0781V17.7188C15.5123 19.528 13.9703 21 12.0747 21H3.43765C1.54207 21 0 19.528 0 17.7188V3.28125C0 1.47192 1.54207 0 3.43765 0H12.0747C13.9703 0 15.5123 1.47192 15.5123 3.28125V4.92188C15.5123 5.37496 15.1277 5.74219 14.6529 5.74219C14.1782 5.74219 13.7935 5.37496 13.7935 4.92188V3.28125C13.7935 2.37666 13.0225 1.64062 12.0747 1.64062H3.43765C2.48995 1.64062 1.71883 2.37666 1.71883 3.28125V17.7188C1.71883 18.6233 2.48995 19.3594 3.43765 19.3594H12.0747C13.0225 19.3594 13.7935 18.6233 13.7935 17.7188V16.0781C13.7935 15.625 14.1782 15.2578 14.6529 15.2578C15.1277 15.2578 15.5123 15.625 15.5123 16.0781ZM21.3717 9.09089L19.4472 7.254C19.1115 6.93356 18.5673 6.93356 18.2318 7.254C17.8961 7.57427 17.8961 8.0937 18.2318 8.41396L19.6007 9.7207H9.28166C8.80697 9.7207 8.42224 10.0879 8.42224 10.541C8.42224 10.9941 8.80697 11.3613 9.28166 11.3613H19.6007L18.2318 12.6681C17.8961 12.9884 17.8961 13.5077 18.2318 13.828C18.3997 13.9882 18.6196 14.0684 18.8394 14.0684C19.0594 14.0684 19.2794 13.9882 19.4472 13.828L21.3717 11.9911C22.2094 11.1915 22.2094 9.89053 21.3717 9.09089Z" fill="#4C51CC"/>
</svg>

<svg width="22" height="22" fill="none" xmlns="http://www.w3.org/2000/svg"><path d="M15.512 16.078v1.64c0 1.81-1.542 3.282-3.437 3.282H3.438C1.542 21 0 19.528 0 17.719V3.28C0 1.471 1.542 0 3.438 0h8.637c1.895 0 3.437 1.472 3.437 3.281v1.64c0 .454-.384.821-.86.821-.474 0-.858-.367-.858-.82v-1.64c0-.905-.771-1.641-1.72-1.641H3.439c-.948 0-1.72.736-1.72 1.64V17.72c0 .904.772 1.64 1.72 1.64h8.637c.948 0 1.719-.736 1.719-1.64v-1.64c0-.454.384-.821.859-.821s.86.367.86.82zm5.86-6.987l-1.925-1.837a.888.888 0 00-1.215 0 .794.794 0 000 1.16L19.6 9.721H9.28c-.474 0-.859.367-.859.82 0 .453.385.82.86.82H19.6l-1.37 1.307a.794.794 0 000 1.16c.169.16.389.24.608.24.22 0 .44-.08.608-.24l1.925-1.837c.837-.8.837-2.1 0-2.9z" fill="#4C51CC"/></svg>
